packages/sources/assets/src/assets/flag-sb.svg

<svg width="28" height="20" viewBox="0 0 28 20" fill="none" xmlns="http://www.w3.org/2000/svg">
<rect width="28" height="20" rx="2" fill="white"/>
<mask id="mask0_503_4707" style="mask-type:alpha" maskUnits="userSpaceOnUse" x="0" y="0" width="28" height="20">
<rect width="28" height="20" rx="2" fill="white"/>
</mask>
<g mask="url(#mask0_503_4707)">
<rect width="28" height="20" fill="url(#paint0_linear_503_4707)"/>
<g filter="url(#filter0_d_503_4707)">
<path fill-rule="evenodd" clip-rule="evenodd" d="M0 0H28L0 20V0Z" fill="url(#paint1_linear_503_4707)"/>
</g>
<path fill-rule="evenodd" clip-rule="evenodd" d="M28 0L0 20H28V0Z" fill="#2C7442"/>
<rect x="-2.77344" y="19.7057" width="33.5473" height="23.8329" transform="rotate(-34 -2.77344 19.7057)" fill="#FFD646"/>
<path fill-rule="evenodd" clip-rule="evenodd" d="M2.02049 4.34834L2.20759 3.25749L1.41504 2.48495L2.51031 2.3258L3.00013 1.33331L3.48995 2.3258L4.58523 2.48495L3.79268 3.25749L3.97978 4.34834L3.00013 3.83331L2.02049 4.34834ZM8.68702 4.34834L8.87412 3.25749L8.08157 2.48495L9.17685 2.3258L9.66667 1.33331L10.1565 2.3258L11.2518 2.48495L10.4592 3.25749L10.6463 4.34834L9.66667 3.83331L8.68702 4.34834ZM8.87412 7.25749L8.68702 8.34834L9.66667 7.83331L10.6463 8.34834L10.4592 7.25749L11.2518 6.48495L10.1565 6.3258L9.66667 5.33331L9.17685 6.3258L8.08157 6.48495L8.87412 7.25749ZM3.00013 7.83331L2.02049 8.34834L2.20759 7.25749L1.41504 6.48495L2.51031 6.3258L3.00013 5.33331L3.48995 6.3258L4.58523 6.48495L3.79268 7.25749L3.97978 8.34834L3.00013 7.83331ZM5.35402 6.34834L6.33366 5.83331L7.3133 6.34834L7.12621 5.25749L7.91875 4.48495L6.82348 4.3258L6.33366 3.33331L5.84384 4.3258L4.74856 4.48495L5.54111 5.25749L5.35402 6.34834Z" fill="white"/>
</g>
<defs>
<filter id="filter0_d_503_4707" x="0" y="0" width="28" height="20" filterUnits="userSpaceOnUse" color-interpolation-filters="sRGB">
<feFlood flood-opacity="0" result="BackgroundImageFix"/>
<feColorMatrix in="SourceAlpha" type="matrix" values="0 0 0 0 0 0 0 0 0 0 0 0 0 0 0 0 0 0 127 0" result="hardAlpha"/>
<feOffset/>
<feColorMatrix type="matrix" values="0 0 0 0 0 0 0 0 0 0 0 0 0 0 0 0 0 0 0.06 0"/>
<feBlend mode="normal" in2="BackgroundImageFix" result="effect1_dropShadow_503_4707"/>
<feBlend mode="normal" in="SourceGraphic" in2="effect1_dropShadow_503_4707" result="shape"/>
</filter>
<linearGradient id="paint0_linear_503_4707" x1="0" y1="0" x2="0" y2="20" gradientUnits="userSpaceOnUse">
<stop stop-color="#1DBE4F"/>
<stop offset="1" stop-color="#159B3F"/>
</linearGradient>
<linearGradient id="paint1_linear_503_4707" x1="0" y1="0" x2="0" y2="20" gradientUnits="userSpaceOnUse">
<stop stop-color="#0660D4"/>
<stop offset="1" stop-color="#0051BB"/>
</linearGradient>
</defs>
</svg>

<svg width="28" height="20" fill="none" xmlns="http://www.w3.org/2000/svg"><rect width="28" height="20" rx="2" fill="#fff"/><mask id="a" style="mask-type:alpha" maskUnits="userSpaceOnUse" x="0" y="0" width="28" height="20"><rect width="28" height="20" rx="2" fill="#fff"/></mask><g mask="url(#a)"><path fill="url(#b)" d="M0 0h28v20H0z"/><g filter="url(#c)"><path fill-rule="evenodd" clip-rule="evenodd" d="M0 0h28L0 20V0Z" fill="url(#d)"/></g><path fill-rule="evenodd" clip-rule="evenodd" d="M28 0 0 20h28V0Z" fill="#2C7442"/><path fill="#FFD646" d="M-2.773 19.706 25.04.946l13.327 19.759-27.812 18.76z"/><path fill-rule="evenodd" clip-rule="evenodd" d="m2.02 4.348.188-1.09-.793-.773 1.095-.16.49-.992.49.993 1.095.159-.792.772.187 1.091L3 3.833l-.98.515Zm6.667 0 .187-1.09-.792-.773 1.095-.16.49-.992.49.993 1.095.159-.793.772.187 1.091-.98-.515-.979.515Zm.187 2.91-.187 1.09.98-.515.98.515-.188-1.09.793-.773-1.096-.16-.49-.992-.49.993-1.094.159.792.772ZM3 7.832l-.98.515.188-1.09-.793-.773 1.095-.16.49-.992.49.993 1.095.159-.792.772.187 1.091L3 7.833Zm2.354-1.485.98-.515.98.515-.188-1.09.793-.773-1.096-.16-.49-.992-.49.993-1.094.159.792.772-.187 1.091Z" fill="#fff"/></g><defs><linearGradient id="b" x1="0" y1="0" x2="0" y2="20" gradientUnits="userSpaceOnUse"><stop stop-color="#1DBE4F"/><stop offset="1" stop-color="#159B3F"/></linearGradient><linearGradient id="d" x1="0" y1="0" x2="0" y2="20" gradientUnits="userSpaceOnUse"><stop stop-color="#0660D4"/><stop offset="1" stop-color="#0051BB"/></linearGradient><filter id="c" x="0" y="0" width="28" height="20" filterUnits="userSpaceOnUse" color-interpolation-filters="sRGB"><feFlood flood-opacity="0" result="BackgroundImageFix"/><feColorMatrix in="SourceAlpha" values="0 0 0 0 0 0 0 0 0 0 0 0 0 0 0 0 0 0 127 0" result="hardAlpha"/><feOffset/><feColorMatrix values="0 0 0 0 0 0 0 0 0 0 0 0 0 0 0 0 0 0 0.06 0"/><feBlend in2="BackgroundImageFix" result="effect1_dropShadow_503_4707"/><feBlend in="SourceGraphic" in2="effect1_dropShadow_503_4707" result="shape"/></filter></defs></svg>
